X: 31484
T: COTILLION No. 36. COURT STREET SETT tune 4
C:
%R: jig
B: Elias Howe "The Musician's Companion" Part 3 1844 p.148 #4 (and p.149 #1)
S: http://imslp.org/wiki/The_Musician's_Companion_(Howe,_Elias)
Z: 2015 John Chambers <jc:trillian.mit.edu>
M: 6/8
L: 1/8
K: G
% - - - - - - - - - - - - - - - - - - - - - - - - -
d |\
BBB B2d | dcB B2G | dde d2e | d2c B2[dA] |\
BBB B2B | dcB B2G | BBB B2c | B2A G2 H|]
d |\
g2g g2g | f2e e2d | ddd dge | d2c B2d |\
g2g g2f | f2e e2d | ddd dge | d2c B2d |
ggg ggg | ggg ggg | ggg aga | b2a g2e |\
dge dge | dge dge | dba gfe | d^cd ed"^D.C."=c |]
% - - - - - - - - - - Dance description - - - - - - - - - -
%%begintext align
%% All balance to the right,
%% swing round,
%% chassa out, &c.
%%endtext
% - - - - - - - - - - - - - - - - - - - - - - - - -
%%sep 1 1 300
